assets/svg/icon_profile_tips.svg

<svg width="24" height="24" viewBox="0 0 24 24" fill="none" xmlns="http://www.w3.org/2000/svg">
<g id="icon/profile/tips">
<path id="Vector" d="M2.25 18.75C7.58566 18.7448 12.8982 19.4514 18.047 20.851C18.774 21.049 19.5 20.509 19.5 19.755V18.75M18.75 16.5H20.625C21.246 16.5 21.75 15.996 21.75 15.375V5.625C21.75 5.004 21.246 4.5 20.625 4.5H20.25H3.375C2.754 4.5 2.25 5.004 2.25 5.625V6V15V15.375C2.25 15.6734 2.36853 15.9595 2.5795 16.1705C2.79048 16.3815 3.07663 16.5 3.375 16.5H3.75H18.75ZM18.75 16.5V15.75C18.75 15.5511 18.8787 14.8713 19.5 14.25C20.1213 13.6287 20.8011 13.5 21 13.5H21.75M15 10.5C15 11.2956 14.6839 12.0587 14.1213 12.6213C13.5587 13.1839 12.7956 13.5 12 13.5C11.2044 13.5 10.4413 13.1839 9.87868 12.6213C9.31607 12.0587 9 11.2956 9 10.5C9 9.70435 9.31607 8.94129 9.87868 8.37868C10.4413 7.81607 11.2044 7.5 12 7.5C12.7956 7.5 13.5587 7.81607 14.1213 8.37868C14.6839 8.94129 15 9.70435 15 10.5Z" stroke="#0E0E0E" stroke-linecap="round" stroke-linejoin="round"/>
<path id="Vector_2" d="M18.75 4.5V5.25C18.75 5.44891 18.8787 6.12868 19.5 6.75C20.1213 7.37132 20.8011 7.5 21 7.5H21.75" stroke="#0E0E0E" stroke-linecap="round" stroke-linejoin="round"/>
<path id="Vector_3" d="M5.25 4.5V5.25C5.25 5.44891 5.12132 6.12868 4.5 6.75C3.87868 7.37132 3.19891 7.5 3 7.5H2.25" stroke="#0E0E0E" stroke-linecap="round" stroke-linejoin="round"/>
<path id="Vector_4" d="M5.25 16.5V15.75C5.25 15.5511 5.12132 14.8713 4.5 14.25C3.87868 13.6287 3.19891 13.5 3 13.5H2.25" stroke="#0E0E0E" stroke-linecap="round" stroke-linejoin="round"/>
</g>
</svg>

<svg xmlns="http://www.w3.org/2000/svg" width="24" height="24" fill="none"><g stroke="#0E0E0E" stroke-linecap="round" stroke-linejoin="round"><path d="M2.25 18.75a60 60 0 0 1 15.797 2.101c.727.198 1.453-.342 1.453-1.096V18.75m-.75-2.25h1.875c.621 0 1.125-.504 1.125-1.125v-9.75c0-.621-.504-1.125-1.125-1.125H3.375c-.621 0-1.125.504-1.125 1.125v9.75A1.125 1.125 0 0 0 3.375 16.5H18.75m0 0v-.75c0-.199.129-.879.75-1.5s1.301-.75 1.5-.75h.75m-6.75-3a3 3 0 1 1-6 0 3 3 0 0 1 6 0"/><path d="M18.75 4.5v.75c0 .199.129.879.75 1.5s1.301.75 1.5.75h.75M5.25 4.5v.75c0 .199-.129.879-.75 1.5S3.199 7.5 3 7.5h-.75M5.25 16.5v-.75c0-.199-.129-.879-.75-1.5S3.199 13.5 3 13.5h-.75"/></g></svg>
